!!!!SEGMENT: pl-wnifc--2370-n_mikuli-karol--mazourka-op-11.krn
!!!cenid: 18xx:3886
!!!COM: Mikuli, Karol
!!!COM-rismID: pe106110
!!!CDT: 1819-1897
!!!CNT:
!!!OTL: Mazourka op. 11
!!!PDT: 1866
!!!AGN:
!!!SMS-siglum: PL-Wnifc
!!!SMS-shelfmark: 2370/n
!!!SMS-shelfwork: W
!!!SMS-variant:
!!!SMS-altvar:
!!!NIFC-rismSourceID: 300605260
!!!NIFC-rismChildID: 300605260
!!!NIFC-islandoraID: nifc:211941
!!!URL-pdf-islandora: https://repozytorium.nifc.pl/islandora/object/nifc%3A211941/datastream/PDF/view
!!!URL-scan: https://polish.musicsources.pl/pl/lokalizacje/galeria/druki-muzyczne/16815 @EN{Scan on Polish Music Sources Website} @PL{Skany w portalu Dziedzictwo Muzyki Polskiej w otwartym dostępie}
!!!IIIF:
!!!ONB-nifc:
!!!AIN: 2 piano
!!!key: b
!!!OMD:
!!!OMD-mod: M.M. [quarter]=126
**kern	**kern	**fing	**dynam
*part2	*part1	*part1	*part1
*staff2	*staff1	*	*
*I"Piano.	*I"Piano.	*	*
*mI"Pianoforte	*mI"Pianoforte	*	*
*I'pf	*I'pf	*	*
*ICklav	*ICklav	*	*
*Ipiano	*Ipiano	*	*
*clefF4	*clefG2	*	*
*k[f#c#]	*k[f#c#]	*	*
*b:	*b:	*	*
*M3/4	*M3/4	*	*
*MM126	*MM126	*	*
!	!LO:TX:a:t=M.M. [quarter]=126:mod=	!	!
8r	(24f#\LL	.	p
.	24ff#\	.	.
.	24ff#\JJ	.	.
=1	=1	=1	=1
*ped	*	*	*
!	!	!	!LO:DY:b=2
!	!	!	!LO:MO:mod=!null:null
4BBB/	8fff#\L)	.	p
.	16r	.	.
.	(16f#\Jk	.	.
4d 4B 4F#\	4ff#W 4dd\)	.	.
!	!LO:TUP:a:problem:klamra łukowa	!	!
*Xped	*	*	*
4e 4B 4G\	12eeL 12cc#y\	.	.
.	12ff# 12dd\	.	.
.	12ggJ 12ee\	.	.
=2	=2	=2	=2
*ped	*	*	*
4BBB/	(8.ff#WL 8.dd\	.	.
.	16eeJk 16cc#y\	.	.
4d 4B 4F#\	4ff# 4dd\	.	.
*Xped	*	*	*
4e 4B 4G\	4bb 4cc#\)	.	.
=3	=3	=3	=3
*ped	*	*	*
4BBB/	(8.ddWL 8.b\	.	.
.	16cc#Jk 16a#X\	.	<
4d 4B 4F#\	4dd 4b\	.	.
*Xped	*	*	*
4E 4EE/	4ee 4cc# 4g\)	.	[[
!!LO:LB:g=original	!	!	!
=4	=4	=4	=4
*ped	*	*	*
4BBB/	4.ff# 4.dd 4.f#\	.	mf
4d 4B 4F#\	.	.	.
.	(8ff#\L	.	p
.	8qaa/	.	.
*Xped	*	*	*
4r	8.gg\	.	.
.	16ff#\Jk)	.	.
=5	=5	=5	=5
*ped	*	*	*
.	(8qff#/	.	.
!	!	!	!LO:DY:b=2
!	!	!	!LO:MO:mod=!null:null
4GGG/	8fff#\L)	.	p
.	16r	.	.
.	(16fff#\Jk	.	.
4B 4G\	4b\	.	.
.	(16qqe/LL	.	.
.	16qqcc#/	.	.
.	16qqdd/JJ	.	.
*Xped	*	*	*
4A#X 4FF#\	4cc# 4e/)	.	.
=6	=6	=6	=6
*ped	*	*	*
4B 4BB\	8bL 8d/)	.	.
.	16r	.	.
.	(16f#/Jk	.	.
4d 4B 4F#\	8b\L	.	<
.	8cc#\	.	.
*Xped	*	*	*
4r	8dd\	.	.
.	8ee\J	.	[[
=7	=7	=7	=7
*ped	*	*	*
!	!LO:SIC:s=8qff#/:v	!	!
.	8qff#/)	.	.
!	!LO:SIC:s=8fff#\L):v	!	!
4GGG/	8fff#\L	.	.
.	16r	.	.
.	(16fff#\Jk	.	.
4B 4G\	4b\	.	.
.	(16qqe/LL	.	.
.	16qqcc#/	.	.
.	16qqdd/JJ	.	.
*Xped	*	*	*
4A#X 4FF#\	4cc# 4e/)	.	.
=8	=8	=8	=8
*ped	*	*	*
4B 4BB\	2b 2d/)	.	.
4d 4B 4F#\	.	.	.
*Xped	*	*	*
4r	8r	.	.
.	(24f#\LL	.	.
.	24ff#\	.	.
.	24ff#\JJ	.	.
!!LO:LB:g=original	!	!	!
=9	=9	=9	=9
*ped	*	*	*
4BBB/	8fff#\L)	.	.
.	16r	.	.
.	(16f#\Jk	.	.
4d 4B 4F#\	4ff#W 4dd\)	.	.
!	!LO:TUP:a:problem:klamra łukowa	!	!
*Xped	*	*	*
4e 4B 4G\	12eeL 12cc#y\	.	.
.	12ff# 12dd\	.	.
.	12ggJ 12ee\	.	.
=10	=10	=10	=10
*ped	*	*	*
4BBB/	(8.ff#WL 8.dd\	.	.
.	16eeJk 16cc#y\	.	.
4d 4B 4F#\	4ff# 4dd\	.	.
*Xped	*	*	*
4e 4B 4G\	4bb 4cc#\)	.	.
=11	=11	=11	=11
*ped	*	*	*
4BBB/	(8.ddWL 8.b\	.	<
.	16cc#Jk 16a#X\	.	.
4d 4F#\	[4dd 4b\	.	.
*Xped	*	*	*
4G 4GG/	4ee 4dd_ 4b-X 4e/	.	[[
=12	=12	=12	=12
*ped	*	*	*
4D 4DD/	4.ff# 4.dd] 4.an 4.f#\)	.	mf
4d 4A 4F#\	.	.	.
.	(8ff#\L	.	p
.	8qaa/	.	.
*Xped	*	*	*
4r	8.gg\	.	.
.	16ff#\Jk)	.	.
=13	=13	=13	=13
!	!	!	!LO:MO:mod=!null:null
.	(8qff#/	.	p
*ped	*	*	*
4GGG/	8fff#\L)	.	.
.	16r	.	.
.	(16eee\Jk	.	.
4B 4G\	4b	.	.
.	(16qqe/LL	.	.
.	16qqcc#/	.	.
.	16qqdd/JJ	.	.
*Xped	*	*	*
4A#X 4FF#\	4cc# 4e/)	.	.
!!LO:LB:g=original	!	!	!
=14	=14	=14	=14
*ped	*	*	*
4B 4BB\	8bL 8d/)	.	.
.	16r	.	.
.	(16f#/Jk	.	.
4d 4B 4F#\	8b\L	.	.
.	8cc#\	.	.
*Xped	*	*	*
4r	8dd\	.	.
.	8ee\J	.	.
=15	=15	=15	=15
!	!LO:SIC:s=(8qff#/:v	!	!
.	(8qff#/)	.	.
*ped	*	*	*
!	!LO:SIC:s=8fff#\L)):v	!	!
4GGG/	8fff#\L)	.	.
.	16r	.	.
.	(16fff#\Jk	.	.
4B 4G\	4b\	.	.
.	(16qqe/LL	.	.
.	16qqcc#/	.	.
.	16qqdd/JJ	.	.
*Xped	*	*	*
4A#X 4FF#\	4cc# 4e/)	.	.
=16	=16	=16	=16
*ped	*	*	*
4B 4BB\	2b 2d/)	.	.
4d 4B 4F#\	.	.	.
*Xped	*	*	*
4r	8r	.	.
.	(24b\LL	.	mf
.	24bb\	.	.
.	24bb\JJ	.	.
=17	=17	=17	=17
*	*^	*	*
*ped	*	*	*	*
4BB 4BBB/	8bbb\L)	4ryyyy	.	.
.	16r	.	.	.
.	(16b\Jk	.	.	.
4d#X 4B 4F#\	4bb/	4aa 4ff#\	.	.
!	!LO:TUP:a:problem:klamra łukowa	!	!	!
*Xped	*	*	*	*
4D#X 4DD#X/	12aa#X/L	4aan 4ff#\	.	.
.	12bb/	.	.	.
.	12cccn/J	.	.	.
*	*v	*v	*	*
=18	=18	=18	=18
4E 4EE/	8bbL 8gg\)	.	.
.	16r	.	.
.	(16gggWJk 16bb\	.	.
4e 4B 4G\	4fff# 4aa\	.	.
4G 4GG/	4eee 4gg\	.	.
!!LO:PB:g=original	!	!	!
=19	=19	=19	=19
*ped	*	*	*
4B 4BB\	8ddd#XL 8ff#\)	.	.
.	16r	.	.
.	(16cccnJk 16ee\	.	.
4d#X 4B 4F#\	8bbL 8dd#X\	.	.
.	8aa 8ccn\	.	.
*Xped	*	*	*
4BB 4BBB/	8gg 8b\	.	.
.	8ff#J 8a\	.	.
=20	=20	=20	=20
.	8qaa/	.	.
*ped	*	*	*
4E 4EE/	8.ggL 8.b\	.	.
.	16ff#Jk 16a\	.	.
4e 4G\	8eeL 8g\)	.	.
.	(8dd#X\	.	.
*Xped	*	*	*
4r	8ee\	.	.
.	8ee#X\J	.	.
=21	=21	=21	=21
!	!LO:SIC:s=(8qff#/:v	!	!
.	(8qff#/)	.	.
*	*^	*	*
*ped	*	*	*	*
!	!LO:SIC:s=8fff#L 8ccc# 8ff#\)):v	!	!	!
4AA#X 4AAA#X/	8fff#L 8ccc# 8ff#\)	2ryyyy	.	.
.	16r	.	.	.
.	(16f#\Jk	.	.	.
4e 4c# 4F#\	4ff#m 4cc#\	.	.	.
!	!LO:TUP:a:problem:klamra łukowa	!	!	!
*Xped	*	*	*	*
4e 4A#X 4F#\	12ee#X/L	4een 4cc#\	.	<
.	12ff#/	.	.	.
.	12gg/J	.	.	.
=22	=22	=22	=22	=22
*ped	*	*	*	*
4BB 4BBB/	8.ff#L 8.dd\)	4ryyyy	.	[
.	[<16ff#\Jk	.	.	>
4d 4B 4F#\	4ddd 4dd\	2ff#/_>	.	.
*Xped	*	*	*	*
4AAn 4AAAn/	4ccc# 4cc#\	.	.	.
=23	=23	=23	=23	=23
.	(<8qccc# 8qcc#/	.	.	.
*ped	*	*	*	*
4GG 4GGG/	8.bbL 8.b\)	2ff#/]	.	.
.	16aa#XJk 16a#X\	.	.	.
[<4G\	2bb 2b\	.	.	.
*Xped	*	*	*	*
[4c# 4G\]	.	4ee#X/	.	.
*	*v	*v	*	*
!!LO:LB:g=original	!	!	!
=24	=24	=24	=24
*^	*	*	*
*ped	*	*	*	*
!LO:SIC:s=4c#] 4F#\:v	!	!	!	!
4c#] 4G\	2ryyyy	8ff#L 8a#X\	.	]
.	.	16r	.	.
.	.	(16ff#\Jk	.	f
4FF# 4FFF#/	.	4fff# 4aa#X\)	.	.
!	!LO:MO:mod=!null:null	!	!	!
!	!LO:TUP:b:problem:klamra łukowa	!LO:TUP:a:problem:klamra łukowa	!	!
*Xped	*	*	*	*
[4f#/	12d\L	12bL 12g#X\	.	.
.	12c#\	12cc# 12a#\	.	.
.	12B\J	12ddJ 12b\	.	.
=25	=25	=25	=25	=25
2f#/]	4c#\	8.cc#mL 8.a#X\	.	.
.	.	16bJk 16g#X\	.	.
.	4F#\	4cc# 4a#\	.	.
*ped	*	*	*	*
4F# 4FF#/	4ryyyy	4ff# 4f#\	.	.
*v	*v	*	*	*
=26	=26	=26	=26
*	*8va	*	*
*	*^	*	*
*	*	*^	*	*
4FF# 4FFF#/	8ffff#L 8fff#\	4ryyyy	2ryyyy	.	.
*	*X8va	*	*	*	*
.	16r	.	.	.	.
!	!LO:MO:mod=!null:null	!	!	!	!
!	!LO:TX:a:i:t=loco	!	!	!	!
.	[<16f#\Jk	.	.	.	.
4c# 4F#\	2cc#/	4a#X 4f#\]	.	.	.
!	!	!	!LO:TUP:a:problem:klamra łukowa	!	!
*Xped	*	*	*	*	*
4B 4C#\	.	4e#X\	12g#X/L	.	.
.	.	.	12a#/	.	.
.	.	.	12g#/J	.	.
*	*	*v	*v	*	*
=27	=27	=27	=27	=27
8.A#XL 8.F#\	8f#/L	8c#X\L	.	.
!	!LO:SIC:s=16re:v	!LO:SIC:s=16re:v	!	!
.	16r	16r	.	.
16F#Jk 16BB\	16d#X/Jk	16B\Jk	.	.
4F# 4FF#/	4f#/	4c# 4A#X\	.	.
*ped	*	*	*	*
[4FF#/	4ff# 4f#/	4ryy	.	.
*	*v	*v	*	*
=28	=28	=28	=28
*^	*	*	*
4FF#] 4FFF#/	4ryyyy	8fff#L 8ff#\	.	.
.	.	16r	.	.
.	.	16f#\Jk	.	.
2f#/	4c# 4F#\	4cc#W 4a#X\	.	.
!	!LO:TUP:a:problem:klamra łukowa	!LO:TUP:a:problem:klamra łukowa	!	!
*Xped	*	*	*	*
.	12dn\L	12bL 12g#X\	.	.
.	12c#\	12cc# 12a#\	.	.
.	12B\J	12ddnJ 12b\	.	.
!!LO:LB:g=original	!	!	!	!
=29	=29	=29	=29	=29
2f#/	4c#\	8.cc#WL 8.a#X\	.	.
.	.	16bJk 16g#X\	.	.
.	4F#\	4cc# 4a#\	.	.
*ped	*	*	*	*
4F# 4FF#/	4ryyyy	4ff# 4f#\	.	.
*v	*v	*	*	*
=30	=30	=30	=30
*	*8va	*	*
*	*^	*	*
*	*	*^	*	*
4FF# 4FFF#/	8ffff#L 8fff#\	4ryyyy	2ryyyy	.	.
*	*X8va	*	*	*	*
.	16r	.	.	.	.
.	[<16f#\Jk	.	.	.	.
!	!LO:MO:mod=!null:null	!	!	!	!
!	!LO:TX:a:i:t=loco	!	!	!	!
4c# 4F#\	2cc#/	4a#X 4f#\]	.	.	.
!	!	!	!LO:TUP:a:problem:klamra łukowa	!	!
*Xped	*	*	*	*	*
4B 4C#\	.	4e#X\	12g#X/L	.	.
.	.	.	12a#/	.	.
.	.	.	12g#/J	.	.
*	*	*v	*v	*	*
=31	=31	=31	=31	=31
2A#X 2F#\	8.f#/L	2c#\	.	.
.	16c#/Jk	.	.	.
.	4f#/	.	.	.
!	!LO:TUP:a:problem:klamra łukowa	!	!	!
4B 4E#X\	12g/L	4d\	.	.
.	12an/	.	.	.
.	12g/J	.	.	.
=32	=32	=32	=32	=32
!	!	!	!	!LO:MO:mod=!null:null
!	!	!	!	!LO:HP:b:t=dimin.
2A#X 2F#\	8.f#/L	2c#\	.	>
.	16c#/Jk	.	.	.
.	4f#/	.	.	.
!	!LO:TUP:a:problem:klamra łukowa	!	!	!
4B 4E#X\	12g/L	4d\	.	.
.	12an/	.	.	.
.	12g/J	.	.	.
=33	=33	=33	=33	=33
*^	*	*	*	*
2F#/	[2.FF#\	8.f#/L	2c# 2A#X\	.	.
.	.	16c#/Jk	.	.	.
.	.	4f#/	.	.	.
!	!	!LO:TUP:a:problem:klamra łukowa	!	!	!
4E/	.	12g/L	4c# 4A#\	.	.
.	.	12an/	.	.	.
.	.	12g/J	.	.	.
!!LO:LB:g=original	!	!	!	!	!
=34	=34	=34	=34	=34	=34
*	*^	*	*	*	*
8.B/L	2.FF#\]	4D#X\	(2.f#/	4f#\	.	.
16F#/Jk	.	.	.	.	.	.
!LO:SIC:s=4B 4G#X/:v	!	!LO:SIC:s=4Dn\:v	!	!	!	!
4B 4G#X/ 4Dn/	.	4Dn/yy	.	4e#X\	.	.
!LO:SIC:s=4A#X/:v	!	!LO:SIC:s=4C#\:v	!	!	!	!
4A#X/ 4C#/	.	4C#/yy	.	4en\	.	.
*v	*v	*v	*	*	*	*
*	*v	*v	*	*
=35	=35	=35	=35
.	16qqdLL 16qqB/	.	.
.	16qqf#/	.	.
.	16qqff#/JJ	.	.
*^	*	*	*
*ped	*	*	*	*
4BB/	4BBB\	8fff#\L)	.	p
.	.	16r	.	.
.	.	(16f#\Jk	.	.
4d 4B 4F#\	2ryyyy	4ff#W 4dd\)	.	.
!	!	!LO:TUP:a:problem:klamra łukowa	!	!
*Xped	*	*	*	*
4e 4B 4G\	.	12eeL 12cc#y\	.	.
.	.	12ff# 12dd\	.	.
.	.	12ggJ 12ee\	.	.
*v	*v	*	*	*
=36	=36	=36	=36
*ped	*	*	*
4BBB/	(8.ff#WL 8.dd\	.	.
.	16eeJk 16cc#y\	.	.
4d 4B 4F#\	4ff# 4dd\	.	.
*Xped	*	*	*
4e 4B 4G\	4bb 4cc#\)	.	.
=37	=37	=37	=37
*ped	*	*	*
4BBB/	(8.ddWL 8.b\	.	.
.	16cc#yJk 16a#X\	.	.
4d 4B 4F#\	4dd 4b\	.	.
*Xped	*	*	*
4E 4EE/	4ee 4cc# 4g\	.	.
=38	=38	=38	=38
*ped	*	*	*
4BB 4BBB/	4.ff# 4.dd 4.f#\)	.	.
4d 4B 4F#\	.	.	.
.	8ff#\L	.	.
.	8qaa/	.	.
*Xped	*	*	*
4r	8.gg\	.	.
.	16ff#\Jk	.	.
!!LO:LB:g=original	!	!	!
=39	=39	=39	=39
.	8qff#/	.	.
*ped	*	*	*
4GGG/	8fff#\L	.	.
.	16r	.	.
.	(16fff#\Jk	.	.
4B 4G\	4b\	.	.
.	(16qqe/LL	.	.
.	16qqcc#/	.	.
.	16qqdd/JJ	.	.
*Xped	*	*	*
4A#X 4FF#\	4cc# 4e/)	.	.
=40	=40	=40	=40
*ped	*	*	*
4B 4BB\	8bL 8d/)	.	.
.	16r	.	.
.	(16f#/Jk	.	.
4d 4B 4F#\	8b\L	.	.
.	8cc#\	.	.
*Xped	*	*	*
4r	8dd\	.	.
.	8ee\J	.	.
=41	=41	=41	=41
.	8qff#/	.	.
*ped	*	*	*
4GGG/	8fff#\L)	.	.
.	16r	.	.
.	(16fff#\Jk	.	.
4B 4G\	4b\	.	.
.	(16qqe/LL	.	.
.	16qqcc#/	.	.
.	16qqdd/JJ	.	.
*Xped	*	*	*
4A#X 4FF#\	4cc# 4e/)	.	.
=42	=42	=42	=42
*ped	*	*	*
4B 4F# 4BB\	2b 2d;/)	.	.
4BB 4BBB;/	.	.	.
*Xped	*	*	*
4r	(>4f#/	.	.
!!LO:PB:g=original	!	!	!
=43||	=43||	=43||	=43||
*k[f#c#g#d#a#]	*k[f#c#g#d#a#]	*	*
*^	*^	*	*
!	!	!LO:TX:a:i:t=dolce	!	!	!
4r	2ryyyy	4.dd#/	8r	.	.
.	.	.	8d#\	.	.
*ped	*	*	*	*	*
4B 4BB\	.	.	4f#\	.	.
.	.	8ff#/L	.	.	.
8A#/L	4FF#\	8cc#/	8e\L	.	.
*Xped	*	*	*	*	*
[8F#/J	.	8dd#/J	8f#\J	.	.
*v	*v	*	*	*	*
=44	=44	=44	=44	=44
*ped	*	*	*	*
4B 4F#] 4BB\	8b/L)	8d#\	.	.
.	16r	8ryyyy	.	.
.	16f#/Jk	.	.	.
4d# 4B 4F#\	4b/	2ryy	.	.
*Xped	*	*	*	*
4e 4A# 4F#\	4cc#/	.	.	.
=45	=45	=45	=45	=45
!	!LO:MO:mod=*null:null	!	!	!
!	!LO:N:vis=2	!	!	!
*ped	*	*	*	*
4BB/	(8dd#/L	2.dd#\	.	.
!	!LO:MO:mod=!null:null	!	!	!
!	!LO:TUP:b:problem:klamra łukowa	!	!	!
.	24ddd#/L	.	.	.
.	24eee/	.	.	.
.	24ddd#/JJ	.	.	.
4d# 4F#\	8ccc#/L	.	.	.
.	8bb/	.	.	.
*Xped	*	*	*	*
4d# 4F#\	8aa#/	.	.	.
.	8gg#/J	.	.	.
=46	=46	=46	=46	=46
*ped	*	*	*	*
4FF#/	8ff#/L	4.ee\	.	.
.	8ff##X/	.	.	.
4e 4F#\	8aa#/	.	.	.
.	8gg#/	8b#X\L	.	.
*Xped	*	*	*	*
4AA#/	8ff#X/	8cc#\	.	.
.	8ee/J)	[8f#\J	.	.
=47	=47	=47	=47	=47
*^	*	*	*	*
*ped	*	*	*	*	*
4BB/	2ryyyy	(4.dd#/	8f#\L]	.	.
.	.	.	8d#\J	.	.
4B 4F#\	.	.	4f#\	.	.
.	.	8ff#/L	.	.	.
8A#/L	4FF#\	8cc#/	8e\L	.	.
*Xped	*	*	*	*	*
8F#/J	.	8dd#/J	8f#\J	.	.
*v	*v	*	*	*	*
=48	=48	=48	=48	=48
*ped	*	*	*	*
4B 4BB\	8b/L	8d#\L	.	.
.	8f#/J	[8f#\J	.	.
4d# 4B 4F#\	8ff#/L	2f#\]	.	.
!	!LO:MO:mod=!null:null	!	!	!
!	!LO:TUP:b:problem:klamra łukowa	!	!	!
.	24ff#/L	.	.	.
.	24gg#/	.	.	.
.	24ff#/JJ	.	.	.
*Xped	*	*	*	*
4BB#X 4BBB#X/	8ee#XL 8an/	.	.	.
.	8dd#/J	.	.	.
!!LO:LB:g=original	!	!	!	!
=49	=49	=49	=49	=49
*ped	*	*	*	*
4C# 4CC#/	8b#X/L)	4g# 4e#X\	.	.
.	16r	.	.	.
.	(16cc#/Jk	.	.	.
*clefG2	*	*	*	*
4f# 4c#/	4bbn/)	4dd# 4bn\	.	<
*Xped	*	*	*	*
!	!	!	!	!LO:MO:null:mod=[[
4g# 4c#/	4bb/	4ee#X 4b\	.	.
*clefF4	*	*	*	*
=50	=50	=50	=50	=50
*^	*	*	*	*
*ped	*	*	*	*	*
!	!	!	!	!	!LO:MO:null:mod=f >
4FF#/	4ryyyy	4.aa#/	4.ff# 4.a#\	.	[ f >
!	!	!	!	!LO:MO:mod=*null:null	!
*clefG2	*	*	*	*below	*
4a# 4c#/	2f#\	.	.	.	.
.	.	8ff#W/L	4.ryyyy	4	.
*Xped	*	*	*	*	*
4an 4B#X/	.	8ee#X/	.	5	.
!	!	!	!	!	!LO:MO:null:mod=[]
.	.	8dd#/J	.	.	.
*v	*v	*	*	*	*
*clefF4	*	*	*	*
=51	=51	=51	=51	=51
*ped	*	*	*	*
!	!	!	!	!LO:MO:null:mod=.
4C# 4CC#/	(8b#X/L	4bn 4e#X\	.	]
.	8cc#/J	.	.	.
4g# 4c#\	4ddn/)	4b 4e#\	.	.
*Xped	*	*	*	*
[4C#/	(4g##X/	(4e# 4B\	.	.
=52	=52	=52	=52	=52
*^	*	*	*	*
2.F# 2.FF#/	N[>4C#\]	8a#/L	4f# 4A#\	.	.
!	!	!LO:MO:mod=!null:null	!	!	!
!	!	!LO:TUP:b:problem:klamra łukowa	!	!	!
.	.	24f#/L	.	.	.
.	.	24g#X/	.	.	.
.	.	24f#/JJ	.	.	.
.	4BB#X\	8e#X/L	4G##X\	.	.
.	.	8d#/J	.	.	.
.	4C#\N]	4c#/)	4A#\)	.	.
*v	*v	*	*	*	*
=53	=53	=53	=53	=53
!LO:MO:mod=*ped:null	!	!	!	!
*null	*	*	*	*
!	!LO:MO:mod=*null:null	!	!	!
*	*ped	*	*	*
4CC#/	(8.b#X/L	4bn 4e#X\	.	<
.	16cc#/Jk	.	.	.
*clefG2	*	*	*	*
4f# 4c#/	4bbn/)	4dd# 4bn\	.	.
!LO:MO:mod=*Xped:null	!	!	!	!
*null	*	*	*	*
!	!LO:MO:mod=*null:null	!	!	!
*	*Xped	*	*	*
4g# 4c#/	4bb/	4ee#X 4b\	.	[[
=54	=54	=54	=54	=54
*^	*	*	*	*
!LO:MO:mod=*ped:null	!	!	!	!	!
*null	*	*	*	*	*
!	!	!LO:MO:mod=*null:null	!	!	!
*	*	*ped	*	*	*
4f# 4F#/	4ryyyy	8aa#/L	4ff# 4a#\	.	.
.	.	[<8ff#/J	.	.	.
4a# 4c#/	2f#\	8fff#L 8ff#\]	4ryyyy	.	<
!	!	!LO:TUP:a:problem:klamra łukowa	!	!	!
.	.	24fff#L 24ff#\	.	.	.
.	.	24ggg#\	.	.	.
.	.	24fff#\JJ	.	.	.
!	!	!LO:SIC:s=8eee#L 8ee#X\:v	!	!	!
4an 4B#X/	.	8eeeL 8ee#X\	4ryyyy	.	.
!LO:MO:mod=*Xped:null	!	!	!	!	!
*null	*	*	*	*	*
.	.	8ddd#J 8dd#\	.	.	[[
!	!	!LO:MO:mod=*null:null	!	!	!
*	*	*Xped	*	*	*
*v	*v	*	*	*	*
*	*v	*v	*	*
!!LO:LB:g=original	!	!	!	!
=55	=55	=55	=55
*ped	*	*	*
8a#L 8f# 8c#/	(8ccc#L 8ff# 8cc#\	.	p
8a#J 8f# 8c#/	8ccc##XJ 8ff# 8cc##X\	.	.
4b 4f# 4c#/	4ddd# 4ff# 4dd#\)	.	.
*Xped	*	*	*
4cc# 4g# 4c#/	4ee#X 4b\	.	.
=56	=56	=56	=56
*ped	*	*	*
4cc# 4f#/	2ff# 2a#\	.	.
*clefF4	*	*	*
4FF#/	.	.	.
*Xped	*	*	*
4r	(>4f#/	.	.
=57	=57	=57	=57
*^	*^	*	*
!	!	!	!LO:SIC:s=8re:v	!	!
4r	2ryyyy	4.dd#/	8r	.	.
.	.	.	8d#\	.	.
*ped	*	*	*	*	*
4B 4BB\	.	.	4f#\	.	.
.	.	8ff#/L	.	.	.
8A#/L	4FF#\	8cc#/	8e\L	.	.
*Xped	*	*	*	*	*
[<8F#/J	.	8dd#/J	8f#\J	.	.
*v	*v	*	*	*	*
=58	=58	=58	=58	=58
*ped	*	*	*	*
4B 4F#] 4BB\	8b/L)	8d#\	.	.
.	16r	8ryyyy	.	.
.	16f#/Jk	.	.	.
4d# 4B 4F#\	4b/	2ryy	.	.
*Xped	*	*	*	*
4e 4A# 4F#\	4cc#/	.	.	.
=59	=59	=59	=59	=59
!	!LO:MO:mod=*null:null	!	!	!
!	!LO:N:vis=2	!	!	!
*ped	*	*	*	*
4BB/	(8dd#/L	2.dd#\	.	.
!	!LO:MO:mod=!null:null	!	!	!
!	!LO:TUP:b:problem:klamra łukowa	!	!	!
.	24ddd#/L	.	.	.
.	24eee/	.	.	.
.	24ddd#/JJ	.	.	.
4d# 4F#\	8ccc#/L	.	.	.
.	8bb/	.	.	.
*Xped	*	*	*	*
4d# 4F#\	8aa#/	.	.	.
.	8gg#/J	.	.	.
=60	=60	=60	=60	=60
*ped	*	*	*	*
4FF#/	8ff#/L	4.ee\	.	.
.	8ff##X/	.	.	.
4e 4F#\	8aa#/	.	.	.
.	8gg#/	8b#X\L	.	.
*Xped	*	*	*	*
4AA#/	8ff#X/	8cc#\	.	.
.	8ee/J)	[8f#\J	.	.
!!LO:LB:g=original	!	!	!	!	!
=61	=61	=61	=61	=61
*^	*	*	*	*
*ped	*	*	*	*	*
4BB/	2ryyyy	(4.dd#/	8f#\L]	.	.
.	.	.	8d#\J	.	.
4B 4F#\	.	.	4f#\	.	.
.	.	8ff#/L	.	.	.
8A#/L	4FF#\	8cc#/	8e\L	.	.
*Xped	*	*	*	*	*
8F#/J	.	8dd#/J	8f#\J	.	.
*v	*v	*	*	*	*
=62	=62	=62	=62	=62
*	*	*^	*	*
*ped	*	*	*	*	*
4B 4BB\	8b/L	8d#\L	2ryyyy	.	.
.	8f#/J	[8f#\J	.	.	.
4d# 4B 4F#\	8ff#/L	2f#\]	.	.	.
!	!LO:MO:mod=!null:null	!	!	!	!
!	!LO:TUP:b:problem:klamra łukowa	!	!	!	!
.	24ff#/L	.	.	.	.
.	24gg#/	.	.	.	.
.	24ff#/JJ	.	.	.	.
*Xped	*	*	*	*	*
4BB#X 4BBB#X/	8ee#X/L	.	4an\	.	.
.	8dd#/J	.	.	.	.
=63	=63	=63	=63	=63	=63
*ped	*	*	*	*	*
!	!	!	!LO:SIC:s=2.:v	!	!
4C# 4CC#/	8b#X/L)	4g# 4e#X\	2.r	.	.
.	16r	.	.	.	.
.	(16cc#/Jk	.	.	.	<
*clefG2	*	*	*	*	*
4f# 4c#/	4bbn/)	4dd# 4bn\	.	.	.
*Xped	*	*	*	*	*
4g# 4c#/	4bb/	4ee#X 4b\	.	.	[[
*	*v	*v	*v	*	*
*clefF4	*	*	*
=64	=64	=64	=64
*^	*	*	*
*ped	*	*	*	*
4FF#/	4ryyyy	4.aa# 4.ff# 4.a#\	.	f >
*clefG2	*	*	*	*
4a# 4c#/	2f#\	.	.	.
.	.	8ff#M\L	4	.
*Xped	*	*	*	*
4an 4B#X/	.	8ee#X\	5	.
.	.	8dd#\J	.	]]
*v	*v	*	*	*
*clefF4	*	*	*
=65	=65	=65	=65
*	*^	*	*
*ped	*	*	*	*
4C# 4CC#/	(8b#X/L	4bn 4e#X\	.	.
.	8cc#/J	.	.	.
4g# 4c#\	4ddn/)	4b 4e#\	.	.
*Xped	*	*	*	*
[4C#/	4g##X/	4e# 4B\	.	.
=66	=66	=66	=66	=66
*^	*	*	*	*
2.F# 2.FF#/	N[>4C#\]	(8a#/L	4f# 4A#\	.	.
!	!	!LO:MO:mod=!null:null	!	!	!
!	!	!LO:TUP:b:problem:klamra łukowa	!	!	!
.	.	24f#/L	.	.	.
.	.	24g#X/	.	.	.
.	.	24f#/JJ	.	.	.
.	4BB#X\	8e#X/L	4G##X\	.	.
.	.	8d#/J	.	.	.
.	4C#\N]	4c#/)	4A#\	.	.
*v	*v	*	*	*	*
!!LO:LB:g=original	!	!	!	!	!
=67	=67	=67	=67	=67
*ped	*	*	*	*
4CC#/	(8.b#X/L	4bn 4e#X\	.	<
.	16cc#/Jk	.	.	.
*clefG2	*	*	*	*
4f# 4c#/	4bbn/)	4dd# 4bn\	.	.
*Xped	*	*	*	*
4g# 4c#/	4bb/	4ee#X 4b\	.	[[
=68	=68	=68	=68	=68
*^	*	*	*	*
*ped	*	*	*	*	*
4f# 4F#/	4ryyyy	<8aa#/L	4ff# 4a#\	.	.
.	.	[<8ff#/J	.	.	.
4a# 4c#/	2f#\	8fff#L 8ff#\]	2ryyyy	.	<
!	!	!LO:TUP:a:problem:klamra łukowa	!	!	!
.	.	24fff#L 24ff#\	.	.	.
.	.	24ggg#\	.	.	.
.	.	24fff#\JJ	.	.	.
*Xped	*	*	*	*	*
4an 4B#X/	.	8eee#XL 8ee#X\	.	.	.
.	.	8ddd#J 8dd#\	.	.	[[
*v	*v	*	*	*	*
*	*v	*v	*	*
=69	=69	=69	=69
*ped	*	*	*
8a#L 8f# 8c#/	(8ccc#L 8ff# 8cc#\	.	.
8a#J 8f# 8c#/	8ccc##XJ 8ff# 8cc##X\	.	.
4b 4f# 4c#/	4ddd# 4ff# 4dd#\)	.	.
*Xped	*	*	*
4cc# 4g# 4c#/	4ee#X 4b\	.	.
=70	=70	=70	=70
*ped	*	*	*
4cc# 4f#/	4ff# 4a#\	.	.
*clefF4	*	*	*
4FF#/	8r	.	.
.	(8ff#'\L	.	.
*Xped	*	*	*
4r	8ff#'\	.	.
.	8ff#'\J)	.	.
=71	=71	=71	=71
*ped	*	*	*
4GGn/	(4.ff#\	.	p
4e 4B 4Gn\	.	.	.
.	8bb\L	.	.
*Xped	*	*	*
4r	8ee\	.	.
.	8bb\J)	.	.
=72	=72	=72	=72
*^	*	*	*
*ped	*	*	*	*
4FF#/	4ryyyy	(8ee\L	.	.
.	.	8an\J	.	.
4c#/	2An 2F#\	4ee\	.	.
*Xped	*	*	*	*
4dn/	.	4ddn\)	.	.
*v	*v	*	*	*
=73	=73	=73	=73
*ped	*	*	*
!	!	!	!LO:MO:mod=!null:null
4EE/	(4.ddn\	.	p
4c# 4Gn 4E\	.	.	.
.	8ggn\L	.	.
*Xped	*	*	*
4r	8cc#\	.	.
.	8gg\J)	.	.
!!LO:PB:g=original	!	!	!	!
=74	=74	=74	=74
*^	*	*	*
*ped	*	*	*	*
4DDn/	4ryyyy	(8cc#/L	.	.
.	.	8f#/J	.	.
4A#/	2F# 2Dn\	4cc#\	.	.
*Xped	*	*	*	*
4B/	.	[4b\)	.	.
=75	=75	=75	=75	=75
*ped	*	*	*	*
4CC#/	4ryyyy	8b\L]	.	.
.	.	8ee\J	.	.
2e/	4Gn\	4b-X\	.	.
.	8An\L	8an/L	.	.
*Xped	*	*	*	*
.	[>8B-X\J	8gn/J	.	.
*v	*v	*	*	*
=76	=76	=76	=76
*ped	*	*	*
!LO:SIC:s=(<8B-]L 8Dn\:v	!	!	!
(<8B-X]L 8Dn\	(>8e#X/L	.	<
8An\	8f#/	.	.
!LO:SIC:s=8d\:v	!	!	!
8d#\	8an/	.	.
8f#\	8ddn/	.	.
8b\	8ggn/	.	.
*Xped	*	*	*
8a#\J)	8ff#/J)	.	.
=77	=77	=77	=77
*	*^	*	*
*ped	*	*	*	*
4AAn/	8dd#L 8cc# 8gn/	4ryyyy	.	.
.	8ee/J	.	.	[
*clefG2	*	*	*	*
4gn 4e 4An/	4ccc#/	4cc#\	.	>
*Xped	*	*	*	*
4g 4e 4A/	4bb/	4cc#\	.	.
*clefF4	*	*	*	*
=78	=78	=78	=78	=78
*^	*	*	*	*
*ped	*	*	*	*	*
(4e#X/	(>4Dn\	(4bb/	[>4ddn 4g#\	.	.
8f#/)	8dn\)	8aan/L)	8dd] 8an\	.	]
!	!	!	!LO:SIC:s=8rf:v	!	!
8r	8ryy	(8ff#'/	8ryy	.	.
*Xped	*	*	*	*	*
4r	4ryy	8ff#'/	4ryy	.	.
.	.	8ff#'/J)	.	.	.
*v	*v	*	*	*	*
*	*v	*v	*	*
=79	=79	=79	=79
*ped	*	*	*
4GGn/	(4.ff#^<\	.	.
4e 4B 4Gn\	.	.	.
.	8bb\L	.	.
*Xped	*	*	*
4r	8ee\	.	.
.	8bb\J)	.	.
=80	=80	=80	=80
*^	*	*	*
*ped	*	*	*	*
4FF#/	4ryyyy	(8ee\L	.	.
.	.	8an\J	.	.
4c#/	2An 2F#\	4ee\	.	.
*Xped	*	*	*	*
4dn/	.	4ddn\)	.	.
*v	*v	*	*	*
!!LO:LB:g=original	!	!	!	!
=81	=81	=81	=81
*ped	*	*	*
4EE/	(4.ddn\	.	.
4c# 4Gn 4E\	.	.	.
.	8ggn\L	.	.
*	*	*	*
*Xped	*	*	*
4r	8cc#\	.	.
.	8gg\J)	.	.
=82	=82	=82	=82
*^	*	*	*
*ped	*	*	*	*
4DDn/	4ryyyy	(8cc#/L	.	.
.	.	8f#/J	.	.
4A#/	2F# 2Dn\	4cc#\	.	.
4B/	.	[4b\)	.	.
*v	*v	*	*	*
=83	=83	=83	=83
!	!	!	!LO:HP:b:t=dim.
4CC#/	(4.b\]	.	>
4B 4Gn 4C#\	.	.	.
.	8ee/L	.	.
4r	8e/	.	.
.	8ee/J	.	.
=84	=84	=84	=84
2.r	8b\L	.	.
.	8ee\J	.	.
.	4e/	.	.
*Xped	*	*	*
.	4ee\)	.	.
=85	=85	=85	=85
*ped	*	*	*
4CC#/	4.b\	.	pp
4B 4G#X 4C#\	.	.	.
.	8ee#X\L	.	.
4r	8e#X\	.	.
.	8ee#\J	.	.
=86	=86	=86	=86
!	!LO:TUP:a:problem:klamra łukowa	!	!
(8C#\L	12b\L	.	.
.	12ee#X\	.	.
8g#J 8c#\)	.	.	.
.	12e#X\J	.	.
*clefG2	*	*	*
4ccc#\	4r	.	.
*Xped	*	*	*
4r	4ee#\	.	.
*clefF4	*	*	*
=87	=87	=87	=87
*ped	*	*	*
8qFF#/	.	.	.
4.a#> 4.c#>\	[2.ff#TT/	.	.
8b>L 8dn>\	.	.	.
*Xped	*	*	*
8g#> 8B>\	.	.	.
8b>J 8d>\	.	.	.
!!LO:LB:g=original	!	!	!	!
=88	=88	=88	=88
8.a#>L 8.c#>\	2.ff#TTT/_	.	.
16g##X>Jk 16B#X>\	.	.	.
4a#> 4c#>\	.	.	.
*ped	*	*	*
4FF#/	.	.	.
=89	=89	=89	=89
4.a#> 4.c#>\	2.ff#TTT/_>	.	.
8cc#>L 8e>\	.	.	.
8b> 8d#>\	.	.	.
*Xped	*	*	*
8g#X>J 8Bn>\	.	.	.
=90	=90	=90	=90
*	*^	*	*
8f#>L 8A#>\	2.ff#TTT/_	2ryyyy	.	<
8g#> 8B>\	.	.	.	.
8a#> 8c#>\	.	.	.	.
8b> 8d#>\	.	.	.	.
8cc#> 8e>\	.	4F#<\	.	.
8cc##X>J 8e#X>\	.	.	.	[[
=91	=91	=91	=91	=91
*ped	*	*	*	*
4f# 4BB\	2.ff#TTT/_	4.dd#\	.	p
4d# 4B 4F#\	.	.	.	.
.	.	8ff#\L	.	.
*Xped	*	*	*	*
4e 4A# 4F#\	.	8cc#X\	.	.
.	.	8dd#\J	.	.
=92	=92	=92	=92	=92
!	!LO:TX:t=P:problem:mixed beam	!	!	!
*ped	*	*	*	*
8.BB\L	2.ff#TTT/]	8.b\L	.	.
16f#\Jk	.	16f#</Jk	.	.
4d# 4B 4F#\	.	4b\	.	.
*Xped	*	*	*	*
4e 4A# 4F#\	.	4cc#\	.	.
*	*v	*v	*	*
=93	=93	=93	=93
*ped	*	*	*
4BB/	4ff# 4dd#TTT\	.	.
.	((>16qqeee#X/LL	.	.
.	16qqfff#/	.	.
.	16qqfff#/JJ	.	.
*	*8va	*	*
4d# 4B 4F#\	32eeeen\LLL)	.	.
.	32r	.	.
.	32dddd#m\	.	.
.	32cccc#\	.	.
.	32bbb\	.	.
.	32aaa#\	.	.
.	32ggg#\	.	.
.	32fff#\J	.	.
*	*X8va	*	*
!	!LO:MO:mod=*null:null	!	!
*	*Xtuplet	*	*
!	!LO:MO:mod=!null:null	!	!
!	!LO:TX:a:i:t=loco	!	!
4f# 4d# 4B\	24eee\	.	.
.	24ddd#\	.	.
.	24ccc#\	.	.
.	24bb\	.	.
.	24aa#\	.	.
*Xped	*	*	*
.	24gg#\JJ	.	.
!!LO:LB:g=original	!	!	!	!
=94	=94	=94	=94
*	*^	*	*
*ped	*	*	*	*
(8FFF#/	8ff#/L)	4r	.	.
!	!LO:SIC:s=16ree:v	!	!	!
8C#\L	16r	.	.	.
.	(16ff##X/Jk	.	.	.
8F#\	8aa#/L	8ee\L	.	.
8e\J	8gg#/	8b#X\J	.	.
*Xped	*	*	*	*
4A#\)	8ff#X/	4cc#\	.	.
.	8ee/J)	.	.	.
=95	=95	=95	=95	=95
*^	*	*	*	*
*ped	*	*	*	*	*
4B 4BB\	2ryyyy	(4.dd#/	8r	.	.
.	.	.	(>8d#\L	.	.
4d# 4B 4F#\	.	.	8f#\J)	.	.
.	.	8ff#/L	8r	.	.
8A#/L	4FF#\	8cc#/	8e\L	.	.
*Xped	*	*	*	*	*
[<8F#/J	.	8dd#/J	8f#\J	.	.
*v	*v	*	*	*	*
=96	=96	=96	=96	=96
*ped	*	*	*	*
4B 4F#] 4BB\	8b/L	8d#\L	.	<
.	8f#/J	8f#\J	.	.
4d# 4B 4F#\	8ff#/L)	[2f#\	.	.
!	!LO:TUP:a:problem:klamra łukowa	!	!	!
.	(24ff#/L	.	.	.
.	24gg#/	.	.	.
.	24ff#/JJ	.	.	.
*Xped	*	*	*	*
4BB#X 4BBB#X/	8eeL N[<8an/	.	.	.
.	8dd#/J)	.	.	.
=97	=97	=97	=97	=97
*^	*	*	*	*
*ped	*	*	*	*	*
4C# 4CC#/	2ryyyy	(4.cc#/	8aN]L 8f#\]	.	.
.	.	.	(>8e\	.	.
4c# 4C#\	.	.	8g#\J)	.	.
.	.	8gg#/L	8r	.	.
8B#X/L	4C#\	8dd#/	8f#\L	.	.
*Xped	*	*	*	*	*
8G#/J	.	8ee/J	8g#\J	.	.
*v	*v	*	*	*	*
=98	=98	=98	=98	=98
*ped	*	*	*	*
4c# 4G# 4C#\	8cc#/L	8e\L	.	.
.	8g#/J	[8g#\J	.	.
4e 4c# 4G#\	8gg#/L)	2g#\_	.	<
*	*tuplet	*	*	*
!	!LO:MO:mod=!null:null	!	!	!
!	!LO:TUP:b:problem:klamra łukowa	!	!	!
.	(24gg#/L	.	.	.
.	24aa#/	.	.	.
.	24gg#/JJ	.	.	.
*Xped	*	*	*	*
4C##X 4CC##X/	8ff#L N[<8b/	.	.	.
.	8ee#X/J)	.	.	.
!!LO:LB:g=original	!	!	!	!	!
=99	=99	=99	=99	=99
*^	*	*	*	*
*ped	*	*	*	*	*
4D# 4DD#/	4ryyyy	(4.dd#/	8bN]L 8g#\]	.	.
.	.	.	(>8f#\	.	.
4d# 4A# 4D#\	4ryyyy	.	8a#\J)	.	.
.	.	8aa#/L	8r	.	.
8c##X/L	4D#\	8ee#X/	8g#\L	.	.
*Xped	*	*	*	*	*
8A#/J	.	8ff#/J	8a#\J	.	.
*v	*v	*	*	*	*
=100	=100	=100	=100	=100
*ped	*	*	*	*
4d# 4A# 4D#\	8dd#/L	8f#\L	.	.
.	8a#/J	[8a#\J	.	.
!	!	!LO:MO:mod=!null:null	!	!
!	!	!LO:TX:b:Bi:t=f _:dur=6q2eh:ext=ud:problem:text with line extensions	!	!
!	!	!	!	!LO:DY:t=sempre più f:ext=ud
4D# 4DD#/	8aa#/L)	2a#\]	.	f
!	!LO:MO:mod=!null:null	!	!	!
!	!LO:TUP:b:problem:klamra łukowa	!	!	!
.	24aa#/L	.	.	.
.	24bb/	.	.	.
.	24aa#/JJ	.	.	.
*Xped	*	*	*	*
4E 4EE/	8gg#/L	.	.	.
.	8ff##X/J	.	.	.
=101	=101	=101	=101	=101
*ped	*	*	*	*
4E#X 4EE#X/	(8ccc#/L	[4ee#X\	.	.
.	8a#/J	.	.	.
4e#X 4c# 4A#\	8ccc#L 8ee#/])	4ryy	.	.
!	!LO:MO:mod=!null:null	!	!	!
!	!LO:TUP:b:problem:klamra łukowa	!	!	!
.	24ccc#/L	.	.	.
.	24ddd#/	.	.	.
.	24ccc#/JJ	.	.	.
*Xped	*	*	*	*
4F# 4FF#/	8bb#X/L	4cc#\	.	.
.	8aa#X/J	.	.	.
=102	=102	=102	=102	=102
*ped	*	*	*	*
4F##X 4FF##X/	8eee/L	(4aan\	.	.
.	8cc#/J	.	.	.
4an 4e 4c#\	8eee/L	8eee\)	.	.
!	!LO:MO:mod=!null:null	!	!	!
!	!LO:TUP:b:problem:klamra łukowa	!	!	!
.	24eee/L	8ryy	.	.
.	24fff#/	.	.	.
.	24eee/JJ	.	.	.
*Xped	*	*	*	*
4G# 4GG#/	8ddd#/L	4gg# 4ee\	.	.
.	8ccc#/J	.	.	.
*	*v	*v	*	*
=103	=103	=103	=103
*	*8va	*	*
*^	*^	*	*
*ped	*	*	*	*	*
2An/	4AAn\	8gggn/L	2ccc#\	.	.
.	.	8ee/J	.	.	.
*clefG2	*	*	*	*	*
.	4cc# 4gn 4e/	8ggg/L	.	.	.
!	!	!LO:MO:mod=!null:null	!	!	!
!	!	!LO:TUP:b:problem:klamra łukowa	!	!	!
.	.	24ggg/L	.	.	.
.	.	24aaan/	.	.	.
.	.	24ggg/JJ	.	.	.
*Xped	*	*	*	*	*
4r	4ryy	8fff#/L	4ccc# 4ggn\	.	.
.	.	8eee/J	.	.	.
*	*	*v	*v	*	*
=104	=104	=104	=104	=104
!	!	!LO:MO:mod=!LO&colon;TX&colon;a&colon;i&colon;t=m.g.	!	!
!	!	!LO:TX:a:t=m.g.	!	!
*ped	*	*	*	*
4fff#>:/	4cc#: 4f#: 4e: 4A#X:/	4eee: 4ccc#: 4ff#: 4ee:/	.	ff
!	!	!LO:MO:mod=*X8va:null	!	!
*	*	*null	*	*
!LO:MO:mod=*Xped:null	!	!	!	!
*null	*	*	*	*
2ryyyy	4r	4r	.	.
.	4r	4r	.	.
*v	*v	*	*	*
!	!LO:MO:mod=*null:null	!	!
*	*X8va	*	*
*clefF4	*	*	*
!!LO:PB:g=original	!	!	!	!
=105	=105	=105	=105
!!!OMD:
!!!OMD-mod: Un poco più lento
*	*^	*	*
!	!LO:MO:mod=!null:null	!	!	!
!	!LO:TX:a:i:t=loco	!	!	!
!	!LO:TX:a:B:t=Un poco più lento.:mod=	!	!	!
*ped	*	*	*	*
(4G# 4C#\	8b/L	2e\	.	p
.	8B/J	.	.	.
2CC#/)	8b/L	.	.	.
!	!LO:MO:mod=!null:null	!	!	!
!	!LO:TUP:b:problem:klamra łukowa	!	!	!
.	24b/L	.	.	.
.	24cc#/	.	.	.
.	24b/JJ	.	.	.
*Xped	*	*	*	*
.	8an/L	4e 4B\	.	.
.	8gn/J	.	.	.
*	*v	*v	*	*
!LO:MO:mod=*kcancel:null	!	!	!
*null	*	*	*
=106	=106	=106	=106
*^	*	*	*
!	!	!LO:MO:mod=!LO&colon;TX&colon;a&colon;i&colon;t=m.d.	!	!
!	!	!LO:TX:a:t=m.d.	!	!
*ped	*	*	*	*
8ryy	2ryyyy	(16f#LL N16e/	.	.
.	.	16A#/JJ	.	.
!LO:MO:mod=!LO&colon;TX&colon;a&colon;i&colon;t=m.g.	!	!	!	!
!LO:TX:a:t=m.g.	!	!	!	!
16F#LL 16C#/	.	8ryy	.	.
16FF#/JJ	.	.	.	.
!LO:MO:mod=!LO&colon;TX&colon;b&colon;i&colon;t=m.d.	!	!	!	!
!LO:TX:b:t=m.d.	!	!	!	!
2AAA#;/N)	.	4ryy	.	.
*	*Xped	*	*	*
.	4rC	8r	.	.
*ped	*	*	*	*
.	.	(24f#\LL	.	.
.	.	24ff#\	.	.
.	.	24ff#\JJ	.	.
*v	*v	*	*	*
=107||	=107||	=107||	=107||
*k[f#c#]	*k[f#c#]	*	*
4BBB/	8fff#\L)	.	p
.	16r	.	.
.	(16f#\Jk	.	.
4d 4B 4F#\	4ff#W 4dd\)	.	.
!	!LO:TUP:a:problem:klamra łukowa	!	!
*Xped	*	*	*
4e 4B 4G\	12eeL 12cc#y\	.	.
.	12ff# 12dd\	.	.
.	12ggJ 12ee\	.	.
=108	=108	=108	=108
*ped	*	*	*
4BBB/	(8.ff#WL 8.dd\	.	.
.	16eeJk 16cc#y\	.	.
4d 4B 4F#\	4ff# 4dd\	.	.
*Xped	*	*	*
4e 4B 4G\	4bb 4cc#\)	.	.
!!LO:LB:g=original	!	!	!	!
=109	=109	=109	=109
*ped	*	*	*
4BBB/	(8.ddML 8.b\	.	.
.	16cc#Jk 16a#X\	.	.
4d 4B 4F#\	4dd 4b\	.	.
*Xped	*	*	*
4E 4EE/	4ee 4cc# 4g\	.	.
=110	=110	=110	=110
*ped	*	*	*
4BB 4BBB/	4.ff# 4.dd 4.f#\)	.	.
4d 4B 4F#\	.	.	.
.	8ff#\L	.	.
.	8qaa/	.	.
*Xped	*	*	*
4r	8.gg\	.	.
.	16ff#\Jk	.	.
=111	=111	=111	=111
.	8qff#/	.	.
*ped	*	*	*
4GGG/	8fff#\L	.	.
.	16r	.	.
.	(16fff#\Jk	.	.
4B 4G\	4b\	.	.
.	(16qqe/LL	.	.
.	16qqcc#/	.	.
.	16qqdd/JJ	.	.
*Xped	*	*	*
4A#X 4FF#\	4cc# 4e/)	.	.
=112	=112	=112	=112
*ped	*	*	*
!	!LO:SIC:s=8bL 8d/):v	!	!
4B 4BB\	8bL 8e/)	.	.
.	16r	.	.
.	(16f#/Jk	.	.
4d 4B 4F#\	8b\L	.	.
.	8cc#\	.	.
*Xped	*	*	*
4r	8dd\	.	.
.	8ee\J	.	.
=113	=113	=113	=113
.	8qff#/	.	.
*ped	*	*	*
4GGG/	8fff#\L)	.	.
.	16r	.	.
.	(16fff#\Jk	.	.
4B 4G\	4b\	.	.
.	(8qe/L	.	.
.	8qcc#/	.	.
.	8qdd/J	.	.
*Xped	*	*	*
4A#X 4FF#\	4cc# 4e/)	.	.
!!LO:LB:g=original	!	!	!	!
=114	=114	=114	=114
*ped	*	*	*
4B 4BB\	2b 2d/)	.	.
4d 4B 4F#\	.	.	.
4r	8r	.	.
.	(24f#\LL	.	.
.	24ff#\	.	.
.	24ff#\JJ	.	.
=115	=115	=115	=115
4BBB/	8fff#\L)	.	.
.	16r	.	.
.	(16f#\Jk	.	.
4d 4B 4F#\	4ff#W 4dd\)	.	.
!	!LO:TUP:a:problem:klamra łukowa	!	!
*Xped	*	*	*
4e 4B 4G\	12eeL 12cc#y\	.	.
.	12ff# 12dd\	.	.
.	12ggJ 12ee\	.	.
=116	=116	=116	=116
*ped	*	*	*
4BBB/	(8.ff#WL 8.dd\	.	.
.	16eeJk 16cc#y\	.	.
4d 4B 4F#\	4ff# 4dd\	.	.
*Xped	*	*	*
4e 4B 4G\	4bb 4cc#\)	.	.
=117	=117	=117	=117
*ped	*	*	*
4BBB/	(8.ddWL 8.b\	.	.
.	16cc#yJk 16a#X\	.	.
4d 4F#\	[4dd 4b\	.	.
*Xped	*	*	*
4G 4GG\	4ee 4dd_ 4b-X 4e/	.	.
=118	=118	=118	=118
*ped	*	*	*
4D 4DD/	4.ff# 4.dd] 4.an 4.f#\)	.	.
4d 4A 4F#\	.	.	.
.	(8ff#\L	.	.
.	8qaa/	.	.
*Xped	*	*	*
4r	8.gg\	.	.
.	16ff#\Jk)	.	.
!!LO:LB:g=original	!	!	!	!
=119	=119	=119	=119
.	(8qff#/	.	.
*ped	*	*	*
4GGG/	8fff#\L)	.	.
.	16r	.	.
.	(16fff#\Jk	.	.
4B 4G\	4b\	.	.
.	(16qqe/LL	.	.
.	16qqcc#/	.	.
.	16qqdd/JJ	.	.
*Xped	*	*	*
4A#X 4FF#\	4cc# 4e/)	.	.
=120	=120	=120	=120
*ped	*	*	*
!	!LO:SIC:s=8bL 8d/):v	!	!
4B 4BB\	8bL 8e/)	.	.
.	16r	.	.
.	(16f#/Jk	.	.
4d 4B 4F#\	8b\L	.	.
.	8cc#\	.	.
*Xped	*	*	*
4r	8dd\	.	.
.	8ee\J	.	.
=121	=121	=121	=121
.	8qff#/	.	.
*ped	*	*	*
4GGG/	8fff#\L)	.	.
.	16r	.	.
.	(16fff#\Jk	.	.
4B 4G\	4b\	.	.
.	(16qqe/LL	.	.
.	16qqcc#/	.	.
.	16qqdd/JJ	.	.
*Xped	*	*	*
4A#X 4FF#\	4cc# 4e/)	.	.
=122	=122	=122	=122
*ped	*	*	*
4B 4BB\	2b 2d/)	.	.
4d 4B 4F#\	.	.	.
*Xped	*	*	*
4r	8r	.	.
.	(24b\LL	.	.
.	24bb\	.	.
.	24bb\JJ	.	.
=123	=123	=123	=123
*	*^	*	*
*ped	*	*	*	*
4BB 4BBB/	8bbb\L)	4ryyyy	.	.
.	16r	.	.	.
.	(16b\Jk	.	.	.
4d#X 4B 4F#\	4bb/	4aa 4ff#\	.	.
!	!LO:TUP:a:problem:klamra łukowa	!	!	!
*Xped	*	*	*	*
4D#X 4DD#X/	12aa#X/L	4aan 4ff#\	.	.
.	12bb/	.	.	.
.	12cccn/J	.	.	.
*	*v	*v	*	*
=124	=124	=124	=124
*ped	*	*	*
4E 4EE/	8bbL 8gg\)	.	.
.	16r	.	.
.	(16gggWJk 16bb\	.	.
4e 4B 4G\	4fff# 4aa\	.	.
*Xped	*	*	*
4G 4GG\	4eee 4gg\	.	.
=125	=125	=125	=125
*ped	*	*	*
4B 4BB\	8ddd#XL 8ff#\)	.	.
.	16r	.	.
.	(16cccnJk 16ee\	.	.
4d#X 4B 4F#\	8bbL 8dd#X\	.	.
.	8aa 8ccn\	.	.
*Xped	*	*	*
4BB 4BBB/	8gg 8b\	.	.
.	8ff#J 8a\	.	.
=126	=126	=126	=126
.	8qaa/	.	.
*ped	*	*	*
4E 4EE/	8.ggL 8.b\	.	.
.	16ff#Jk 16a\	.	.
4e 4G\	8eeL 8g\)	.	.
.	(8dd#X\	.	.
*Xped	*	*	*
4r	8ee\	.	.
.	8ee#X\J	.	.
!!LO:PB:g=original	!	!	!	!
=127	=127	=127	=127
.	8qff#/	.	.
*	*^	*	*
*ped	*	*	*	*
4AA#X 4AAA#X/	8fff#L 8ccc# 8ff#\)	4ryyyy	.	.
.	16r	.	.	.
.	(16f#\Jk	.	.	.
4e 4c# 4F#\	4ff#m 4cc#\	4ryyyy	.	.
!	!LO:TUP:a:problem:klamra łukowa	!	!	!
*Xped	*	*	*	*
4e 4A#X 4F#\	12ee#X/L	4een 4cc#\	.	.
.	12ff#/	.	.	.
.	12gg/J	.	.	.
=128	=128	=128	=128	=128
*ped	*	*	*	*
4BB 4BBB/	8.ff#L 8.dd\)	4ryyyy	.	.
.	[<16ff#\Jk	.	.	.
4d 4B 4F#\	2ff#/]	4ddd 4dd\	.	.
*Xped	*	*	*	*
4AAn 4AAAn/	.	4ccc# 4cc#\	.	.
=129	=129	=129	=129	=129
.	.	(<8qccc# 8qcc#/	.	.
*ped	*	*	*	*
4GG 4GGG/	2ff#/	8.bbL 8.b\)	.	.
.	.	16aa#XJk 16a#X\	.	.
4G\	.	2bb 2b\	.	.
*Xped	*	*	*	*
4c# 4G\	4ee#X/	.	.	.
*	*v	*v	*	*
=130	=130	=130	=130
*ped	*	*	*
4c# 4F#\	8ff#L 8a#X\	.	.
.	16r	.	.
.	(16ff#\Jk	.	.
4FF# 4FFF#/	4fff# 4aa#X\)	.	.
!	!LO:TUP:a:problem:klamra łukowa	!	!
(12f#L 12d\	12bL 12g#X\	.	.
*Xped	*	*	*
12c#\	12cc# 12a#\	.	.
12B\J	12ddJ 12b\	.	.
=131	=131	=131	=131
*^	*	*	*
!	!	!LO:SIC:s=8.cc#WL 8.a#\:v	!	!
2f#/)	4c#\	8.cc#WL 8.a\	.	.
.	.	16bJk 16g#X\	.	.
!	!	!LO:SIC:s=4cc# 4a#\:v	!	!
.	4F#\	4cc# 4a\	.	.
*ped	*	*	*	*
4F# 4FF#/	4ryyyy	4ff# 4f#\	.	.
*v	*v	*	*	*
!!LO:LB:g=original	!	!	!	!
=132	=132	=132	=132
*	*8va	*	*
*	*^	*	*
*	*	*^	*	*
4FF# 4FFF#/	8ffff#L 8fff#\	4ryyyy	2ryyyy	.	.
*	*X8va	*	*	*	*
.	16r	.	.	.	.
!	!LO:MO:mod=!null:null	!	!	!	!
!	!LO:TX:a:i:t=loco	!	!	!	!
.	[<16f#\Jk	.	.	.	.
4c# 4F#\	2cc#/	4a#X 4f#\]	.	.	.
!	!	!	!LO:TUP:a:problem:klamra łukowa	!	!
*Xped	*	*	*	*	*
4B 4C#\	.	4e#X\	12g#X/L	.	.
.	.	.	12a#/	.	.
.	.	.	12g#/J	.	.
*	*	*v	*v	*	*
=133	=133	=133	=133	=133
8.A#XL 8.F#\	8f#/L	8c#\L	.	.
!	!LO:SIC:s=16re:v	!LO:SIC:s=16re:v	!	!
.	16r	16r	.	.
16F#Jk 16BB\	16d#X/Jk	16B\Jk	.	.
4F# 4FF#/	4f# 4c# 4A#X/	2ryyyy	.	.
*ped	*	*	*	*
[4FF#/	4ff# 4f#'\	.	.	.
*	*v	*v	*	*
=134	=134	=134	=134
*^	*	*	*
4FF#] 4FFF#/	4ryyyy	8fff#L 8ff#\	.	.
.	.	16r	.	.
.	.	16f#\Jk	.	.
2f#/	4c# 4F#\	4cc#W 4a#X\	.	.
!	!LO:TUP:a:problem:klamra łukowa	!LO:TUP:a:problem:klamra łukowa	!	!
.	12dn\L	12bL 12g#X\	.	.
*Xped	*	*	*	*
.	12c#\	12cc# 12a#\	.	.
*	*	*	*	*
.	12B\J	12ddnJ 12b\	.	.
!!LO:LB:g=original	!	!	!	!	!
=135	=135	=135	=135	=135
2f#/	4c#\	8.cc#mL 8.a#X\	.	.
.	.	16bJk 16g#X\	.	.
.	4F#\	4cc# 4a#\	.	.
*ped	*	*	*	*
4F# 4FF#/	4ryyyy	4ff# 4f#\	.	.
*v	*v	*	*	*
=136	=136	=136	=136
*	*8va	*	*
*	*^	*	*
*	*	*^	*	*
4FF# 4FFF#/	8ffff#L 8fff#\	4ryyyy	2ryyyy	.	.
*	*X8va	*	*	*	*
.	16r	.	.	.	.
!	!LO:MO:mod=!null:null	!	!	!	!
!	!LO:TX:a:i:t=loco	!	!	!	!
.	[<16f#\Jk	.	.	.	.
4c# 4F#\	2cc#/	4a#X 4f#\]	.	.	.
!	!	!	!LO:TUP:a:problem:klamra łukowa	!	!
*Xped	*	*	*	*	*
4B 4C#\	.	4e#X\	12g#X/L	.	.
.	.	.	12a#/	.	.
.	.	.	12g#/J	.	.
*	*	*v	*v	*	*
=137	=137	=137	=137	=137
2A#X 2F#\	8.f#/L	2c#\	.	.
.	16c#/Jk	.	.	.
.	4f#/	.	.	.
!	!LO:TUP:a:problem:klamra łukowa	!	!	!
4B 4E#X\	12g/L	4d\	.	.
.	12an/	.	.	.
.	12g/J	.	.	.
=138	=138	=138	=138	=138
2A#X 2F#\	8.f#/L	2c#\	.	.
.	16c#/Jk	.	.	.
.	4f#/	.	.	.
!	!LO:TUP:a:problem:klamra łukowa	!	!	!
4B 4E#X\	12g/L	4d\	.	.
.	12an/	.	.	.
.	12g/J	.	.	.
=139	=139	=139	=139	=139
*^	*	*	*	*
2F#/	[2.FF#\	8.f#/L	2c# 2A#X\	.	.
.	.	16c#/Jk	.	.	.
.	.	4f#/	.	.	.
!	!	!LO:TUP:a:problem:klamra łukowa	!	!	!
4E/	.	12g/L	4c# 4A#\	.	.
.	.	12an/	.	.	.
.	.	12g/J	.	.	.
=140	=140	=140	=140	=140	=140
*	*^	*	*	*	*
8.B/L	2.FF#\]	4D#X\	2.f#/	(>4f#\	.	.
16F#/Jk	.	.	.	.	.	.
4B 4G#X/	.	4Dn\	.	4e#X\	.	.
4A#X/	.	4C#\	.	4en\)	.	.
*v	*v	*v	*	*	*	*
*	*v	*v	*	*
!!LO:LB:g=original	!	!	!	!
=141	=141	=141	=141
*	*tuplet	*	*
!	!LO:TX:t=P:problem: triola na przednutce	!	!
.	(>16qqdLL 16qqB/	.	.
.	16qqf#/	.	.
.	16qqff#/JJ	.	.
*ped	*	*	*
4BBB/	8fff#\L)	.	.
.	16r	.	.
.	(16f#\Jk	.	.
4d 4B 4F#\	4ff#W 4dd\)	.	.
!	!LO:TUP:a:problem:klamra łukowa	!	!
*Xped	*	*	*
4e 4B 4G\	12eeL 12cc#y\	.	.
.	12ff# 12dd\	.	.
.	12ggJ 12ee\	.	.
=142	=142	=142	=142
*ped	*	*	*
4BBB/	8.ff#WL 8.dd\	.	.
.	16eeJk 16cc#y\	.	.
4d 4B 4F#\	4ff# 4dd\	.	.
*Xped	*	*	*
4e 4B 4G\	4bb 4cc#\	.	.
=143	=143	=143	=143
*ped	*	*	*
4BBB/	8.ddWL 8.b\	.	.
.	16cc#yJk 16a#X\	.	.
4d 4B 4F#\	4dd 4b\	.	.
*Xped	*	*	*
4e 4B 4G\	4ee 4cc# 4g\	.	.
=144	=144	=144	=144
*ped	*	*	*
4BB 4BBB/	4.ff# 4.dd 4.f#\	.	.
4d 4B 4F#\	.	.	.
.	(8ff#\L	.	.
.	8qaa/	.	.
*Xped	*	*	*
4r	8.gg^<\	.	.
.	16ff#\Jk	.	.
=145	=145	=145	=145
.	8qff#/	.	.
*ped	*	*	*
4GGG/	8fff#\L)	.	.
.	16r	.	.
.	(16fff#\Jk	.	.
4B 4G\	4b\)	.	.
.	(16qqe/LL	.	.
.	16qqcc#/	.	.
.	16qqdd/JJ	.	.
*Xped	*	*	*
4A#X 4FF#\	4cc# 4e/)	.	.
!!LO:LB:g=original	!	!	!	!
=146	=146	=146	=146
*ped	*	*	*
4B 4BB\	8bL 8d/	.	.
.	16r	.	.
.	(16f#/Jk	.	.
4d 4B 4F#\	8b\L	.	.
.	8cc#\	.	.
*Xped	*	*	*
4r	8dd\	.	.
.	8ee\J	.	.
=147	=147	=147	=147
.	8qff#/	.	.
*ped	*	*	*
4GG/	8fff#\L)	.	.
.	16r	.	.
.	(16fff#\Jk	.	.
*Xped	*	*	*
2f# 2d 2B 2G\	(2b\)	.	.
=148	=148	=148	=148
.	8qee#X/	.	.
*ped	*	*	*
4GG/	8ccc#\L)	.	.
.	16r	.	.
.	(16ccc#\Jk	.	.
*Xped	*	*	*
2e#X 2c# 2B 2G\	2b\)	.	.
=149	=149	=149	=149
.	(8qff#/	.	.
*ped	*8va	*	*
8f# 8d 8B 8F#\	8ffff#\L)	.	.
8r	16r	.	.
.	16ffff#\Jk	.	.
*	*X8va	*	*
!	!LO:MO:mod=!null:null	!	!
!	!LO:TX:a:i:t=loco	!	!
4r	4.f#/	.	.
8r	.	.	.
.	(16qqe/LL	.	.
.	16qqcc#/	.	.
.	16qqdd/JJ	.	.
*Xped	*	*	*
8A#X 8FF#\	8cc# 8e/)	.	.
=150	=150	=150	=150
*ped	*	*	*
8B 8BB\	8b 8d/	.	.
8r	8r	.	.
4BB 4FF# 4BBB/	4bbb 4fff# 4bb\	.	ff
*Xped	*	*	*
4r	4r	.	.
==	==	==	==
*-	*-	*-	*-
!!!system-decoration: {(s1,s2)}
!!!RDF**kern: > = above
!!!RDF**kern: < = below
!!!RDF**kern: N = linked
!!!filter-modern: sic -sq | shed -e "s/LO:DY:(a|b|rj)/LO:dy:$1/L" | shed -e "s/TX(.*):t=P:/tx$1:t=P:/LG" | modori -m | shed -e "s/yy//" | shed -k -e "s/\(y([^y])/($1/" | shed -e "s/^(\d+[\/\\]right)/$1yy/I; s/^(\d+[\/\\]left)/$1yy/I" | shed -k -e “s/([()[]_])[><]/$1/g” | shed -k -e "s/:TUP:/:tup:/L"
!!!ENC: Andrzej Gręziak
!!!END: 2022-07-22
!!!ENC: Jan Barakat
!!!END: 2022-08-17
!!!EED-modern: Antoni Szymański
!!!END-modern: 2022-08-27
!!!YEC: Copyright 2022 Narodowy Instytut Fryderyka Chopina (https://polishscores.org)
!!!YEM: License CC-BY-4.0 (https://creativecommons.org/licenses/by/4.0)
